assets/img/min/backbone.svg

<?xml version="1.0" encoding="UTF-8" standalone="no"?>
<svg width="256px" height="318px" viewBox="0 0 256 318" version="1.1" xmlns="http://www.w3.org/2000/svg" xmlns:xlink="http://www.w3.org/1999/xlink" preserveAspectRatio="xMidYMid">
	<g>
		<path d="M0,0 L0,171.944611 L127.983514,244.900539 L127.983514,195.308789 L42.3643479,146.5023 L42.3643479,69.8414195 L127.983514,118.647908 L127.983514,72.9559283 L0,0 L0,0 Z" fill="#002A41"></path>
		<path d="M255.967029,0 L255.967029,171.944611 L127.983514,244.900539 L127.983514,195.308789 L213.602681,146.5023 L213.602681,69.8414195 L127.983514,118.647908 L127.983514,72.9559283 L255.967029,0 L255.967029,0 Z" fill="#0071B5"></path>
		<path d="M0,317.932684 L0,145.988073 L127.983514,73.0321441 L127.983514,122.623895 L42.3643479,171.430383 L42.3643479,244.191489 L127.983514,195.385004 L127.983514,244.976756 L0,317.932684 L0,317.932684 Z" fill="#0071B5"></path>
		<path d="M255.967029,317.932684 L255.967029,145.988073 L127.983514,73.0321441 L127.983514,122.623895 L213.602681,171.430383 L213.602681,244.191489 L127.983514,195.385004 L127.983514,244.976756 L255.967029,317.932684 L255.967029,317.932684 Z" fill="#002A41"></path>
	</g>
</svg>

<svg width="256" height="318" viewBox="0 0 256 318" xmlns="http://www.w3.org/2000/svg" preserveAspectRatio="xMidYMid"><path d="M0 0v171.945L127.984 244.9v-49.592l-85.62-48.807v-76.66l85.62 48.806V72.956L0 0z" fill="#002A41"/><path d="M255.967 0v171.945L127.984 244.9v-49.592l85.619-48.807v-76.66l-85.62 48.806V72.956L255.968 0z" fill="#0071B5"/><path d="M0 317.933V145.988l127.984-72.956v49.592l-85.62 48.806v72.761l85.62-48.806v49.592L0 317.933z" fill="#0071B5"/><path d="M255.967 317.933V145.988L127.984 73.032v49.592l85.619 48.806v72.761l-85.62-48.806v49.592l127.984 72.956z" fill="#002A41"/></svg>
